X: 0
T: Banish Misfortune
C: Trad
M: 6/8
L: 1/8
K: Dmix
|: "D pedal"fed ^cAG | A2d cAG | F2D DED | ~F3 GFG | 
~A3 cAG | AGA cde | fed ^cAG | Ad^c d3 :|
|: "D"f2d d^cd| f2g agf | "C"e2c cBc | "Em"e2f gfe |
 "D"f2g agf | "C"e2f gfe | "Am"fed cAG | "D"Ad^c d3 :|
|: "D"f2g e2f | "Am"d2e c2d | "G"ABA GAG | "D"F2F GED | 
"D7"c3 cAG | AGA d2e | "Am"fed ^cAG |1 "D"Ad^c d2e :|2"D"Ad^c d3 |]